X:1321
L:1/8
M:6/8
K:Amin
 E |"Am" ABA c2 d |"Am" edc B2 A |"G" GAG B2 d |"G" c2 e dBG |"Am" ABA c2 d |"Am" edc B2 c/d/ | 
"Am" e2 A"Em" ABG |"Am" A3 A2 :: B |"C" c2 e g2 a |"C" gec gec |"G" G2 B d2 e |"G" dBG dBG | 
"C" c2 e g2 a |"C" gec ceg |"Am" a2 A"Em" ABG |"Am" A3 A2 :|

